X: 294
T: New Five Cents [1]
B: canberra pickers and fiddlers
B: tunes
M:C|
L:1/8
Q: 1/4=100
K:D
V:1 
(A|A)2f2 f3e|dfed BcdB|ABde f2f2|e3 fe2[DA]2-|
[DA]2 f2 fgfe|dfed BcdB|A2 FD ED C2|1 D3E D2A:|2D3 E D2 dB||
||:A2 F2F2 dB|ADFG F2 dB|A2F2 FEDE|F E2F E2dB|
AFDF AFdc|B [GB]2 A BcdB|A2 FD ED C2|1 D3 ED2 dB:||2 D3 E D3|]
% abcbook-tune_id 63da5934347716f65cd7f219
% abcbook-tune_composer_id 
% abcbook-link-0 https://www.youtube.com/watch?v=gDtGFLawQxM
% abcbook-boost 0
% abcbook-difficulty 0
% abcbook-tags canberra pickers and fiddlers,old time tunes,© free
% abcbook-tablature 
% abcbook-transpose 
% abcbook-tuning ADAE
% abcbook-lastupdated 1729569986256
% abcbook-src-url https://tunebook.net/scrape/tunes.abc
% abcbook-soundfonts 
% abcbook-repeats 1
%%gchordfont "itim-music,Itim" 20

